client/src/assets/public/images/icons/red_class.svg

<?xml version="1.0" encoding="UTF-8"?>
<svg width="90px" height="84px" viewBox="0 0 90 84" version="1.1" xmlns="http://www.w3.org/2000/svg" xmlns:xlink="http://www.w3.org/1999/xlink">
    <!-- Generator: Sketch 48.2 (47327) - http://www.bohemiancoding.com/sketch -->
    <title>class</title>
    <desc>Created with Sketch.</desc>
    <defs></defs>
    <g id="Home-2" stroke="none" stroke-width="1" fill="none" fill-rule="evenodd" transform="translate(-773.000000, -1339.000000)">
        <g id="3-steps" transform="translate(75.000000, 1239.000000)" fill="#E14660">
            <g id="3" transform="translate(636.000000, 100.000000)">
                <g id="class" transform="translate(62.000000, 0.000000)">
                    <circle id="Oval" fill-rule="nonzero" cx="80.0043478" cy="21.1347826" r="6.19565217"></circle>
                    <path d="M83.1434783,30.4695652 L75.1304348,30.4695652 L64.979431,20.3185614 C64.1983824,19.5375128 62.9320524,19.5375128 62.1510038,20.3185614 L60.606248,21.8633172 C59.8251995,22.6443658 59.8251995,23.9106957 60.606248,24.6917443 C60.6079376,24.6934339 60.6096303,24.6951205 60.611326,24.6968041 L70.7521739,34.7652174 L70.7521739,46 L70.7521739,52.1956522 L70.7521739,68.8652174 C70.7521739,69.9697869 71.6476044,70.8652174 72.7521739,70.8652174 L74.9478261,70.8652174 C76.0523956,70.8652174 76.9478261,69.9697869 76.9478261,68.8652174 L76.9478261,52.1956522 L80.0869565,52.1956522 L80.0869565,68.8652174 C80.0869565,69.9697869 80.982387,70.8652174 82.0869565,70.8652174 L84.2826087,70.8652174 C85.3871782,70.8652174 86.2826087,69.9697869 86.2826087,68.8652174 L86.2826087,53.7652174 C86.2826087,52.8983705 86.985327,52.1956522 87.8521739,52.1956522 L87.8521739,52.1956522 C88.7190208,52.1956522 89.4217391,51.4929339 89.4217391,50.626087 L89.4217391,36.6652174 C89.3391304,33.1956522 86.5304348,30.4695652 83.1434783,30.4695652 Z" id="Shape" fill-rule="nonzero"></path>
                    <path d="M33.3304348,77.0608696 C33.3304348,73.5913043 30.5217391,70.8652174 27.1347826,70.8652174 L20.9391304,70.8652174 C17.4695652,70.8652174 14.7434783,73.673913 14.7434783,77.0608696 L14.7434783,81.2565217 C14.7434783,82.3610912 15.6389088,83.2565217 16.7434783,83.2565217 L31.4130435,83.2565217 C32.517613,83.2565217 33.4130435,82.3610912 33.4130435,81.2565217 L33.4130435,77.0608696 L33.3304348,77.0608696 Z" id="Shape" fill-rule="nonzero"></path>
                    <circle id="Oval" fill-rule="nonzero" cx="23.9956522" cy="61.5304348" r="6.19565217"></circle>
                    <path d="M36.4695652,77.0608696 L36.4695652,81.2565217 C36.4695652,82.3610912 37.3649957,83.2565217 38.4695652,83.2565217 L53.1391304,83.2565217 C54.2436999,83.2565217 55.1391304,82.3610912 55.1391304,81.2565217 L55.1391304,77.0608696 C55.1391304,73.5913043 52.3304348,70.8652174 48.9434783,70.8652174 L42.7478261,70.8652174 C39.1956522,70.8652174 36.4695652,73.673913 36.4695652,77.0608696 Z" id="Shape" fill-rule="nonzero"></path>
                    <circle id="Oval" fill-rule="nonzero" cx="45.8043478" cy="61.5304348" r="6.19565217"></circle>
                    <rect id="Rectangle-path" fill-rule="nonzero" x="58.1956522" y="74.0043478" width="31.0608696" height="6.19565217"></rect>
                    <path d="M63.473913,46 L20.9391304,46 L20.9391304,14.9391304 L66.5304348,14.9391304 C67.0827195,14.9391304 67.5304348,14.4914152 67.5304348,13.9391304 L67.5304348,9.66086957 C67.5304348,9.10858482 67.0827195,8.66086957 66.5304348,8.66086957 L15.6608696,8.66086957 C15.1085848,8.66086957 14.6608696,9.10858482 14.6608696,9.66086957 L14.6608696,51.1956522 C14.6608696,51.7479369 15.1085848,52.1956522 15.6608696,52.1956522 L63.473913,52.1956522 C64.0261978,52.1956522 64.473913,51.7479369 64.473913,51.1956522 L64.473913,47 C64.473913,46.4477153 64.0261978,46 63.473913,46 Z" id="Shape" fill-rule="nonzero"></path>
                    <path d="M25,19 L55,19 C55.5522847,19 56,19.4477153 56,20 L56,21 C56,21.5522847 55.5522847,22 55,22 L25,22 C24.4477153,22 24,21.5522847 24,21 L24,20 C24,19.4477153 24.4477153,19 25,19 Z" id="Path-2" fill-opacity="0.5"></path>
                    <path d="M25,26 L51,26 C51.5522847,26 52,26.4477153 52,27 L52,28 C52,28.5522847 51.5522847,29 51,29 L25,29 C24.4477153,29 24,28.5522847 24,28 L24,27 C24,26.4477153 24.4477153,26 25,26 Z" id="Path-2" fill-opacity="0.5"></path>
                    <path d="M25,33 L43,33 C43.5522847,33 44,33.4477153 44,34 L44,35 C44,35.5522847 43.5522847,36 43,36 L25,36 C24.4477153,36 24,35.5522847 24,35 L24,34 C24,33.4477153 24.4477153,33 25,33 Z" id="Path-2" fill-opacity="0.5"></path>
                    <circle id="Oval-4" fill-opacity="0.5" cx="10" cy="3" r="3"></circle>
                    <circle id="Oval-4" fill-opacity="0.5" cx="2" cy="12" r="2"></circle>
                    <circle id="Oval-4" fill-opacity="0.5" cx="9" cy="17" r="1"></circle>
                    <circle id="Oval-4" fill-opacity="0.5" cx="24" cy="3" r="1"></circle>
                </g>
            </g>
        </g>
    </g>
</svg>

<svg xmlns="http://www.w3.org/2000/svg" width="90" height="84" fill="#e14660" fill-rule="evenodd"><g fill-rule="nonzero"><circle cx="80.004" cy="21.135" r="6.196"/><path d="M83.143 30.47H75.13L64.98 20.32a2 2 0 0 0-2.828 0l-1.545 1.545a2 2 0 0 0 0 2.828l10.146 10.073v34.1a2 2 0 0 0 2 2h2.196a2 2 0 0 0 2-2v-16.67h3.14v16.67a2 2 0 0 0 2 2h2.196a2 2 0 0 0 2-2v-15.1a1.57 1.57 0 0 1 1.57-1.57h0a1.57 1.57 0 0 0 1.57-1.57v-13.96c-.083-3.47-2.9-6.196-6.278-6.196zM33.33 77.06a6.19 6.19 0 0 0-6.196-6.196H20.94a6.19 6.19 0 0 0-6.196 6.196v4.196a2 2 0 0 0 2 2h14.67a2 2 0 0 0 2-2V77.06h-.083z"/><circle cx="23.996" cy="61.53" r="6.196"/><path d="M36.47 77.06v4.196a2 2 0 0 0 2 2h14.67a2 2 0 0 0 2-2V77.06c0-3.47-2.81-6.196-6.196-6.196h-6.196c-3.552 0-6.278 2.81-6.278 6.196z"/><circle cx="45.804" cy="61.53" r="6.196"/><path d="M58.196 74.004h31.06V80.2h-31.06zM63.474 46H20.94V14.94h45.6a1 1 0 0 0 1-1V9.66a1 1 0 0 0-1-1H15.66a1 1 0 0 0-1 1v41.535a1 1 0 0 0 1 1h47.813a1 1 0 0 0 1-1V47a1 1 0 0 0-1-1z"/></g><path d="M25 19h30a1 1 0 0 1 1 1v1a1 1 0 0 1-1 1H25a1 1 0 0 1-1-1v-1a1 1 0 0 1 1-1zm0 7h26a1 1 0 0 1 1 1v1a1 1 0 0 1-1 1H25a1 1 0 0 1-1-1v-1a1 1 0 0 1 1-1zm0 7h18a1 1 0 0 1 1 1v1a1 1 0 0 1-1 1H25a1 1 0 0 1-1-1v-1a1 1 0 0 1 1-1z" fill-opacity=".5"/><circle fill-opacity=".5" cx="10" cy="3" r="3"/><circle fill-opacity=".5" cx="2" cy="12" r="2"/><circle fill-opacity=".5" cx="9" cy="17" r="1"/><circle fill-opacity=".5" cx="24" cy="3" r="1"/></svg>
